X:053
T:Fantastic Reel*, The 
B:CRE3.086 (gan ainm)
F:file ID: cre.3/053fant
N:This is Peter Horan's version of "Glencolmcille" (PdG). I have appended
a second version with the first four notes in measures 1 and 5 changed 
from |DADE| to |ADDE| (which make sense if the pickup notes |AB| are 
correct). |DADE| seems awkward and I'm thinking some "scribal error"
might have crept into Breathnach's transcription.
R:reel
Q:180
M:C
L:1/8
K:D
AB|DADE FED2|Adcd BAFA|BE~E2 DEE2|GFED BEGB|
DADE FED2|Adcd BAFA|B2e2 dBAG|FA (3EFE D2:|
|:de|fded cAA2|fdef geag|fded cAAc|BAFA Dcde|
fded cAA2|fdef ~g2fg|af (3gfe fded|1 cABc dc:|\
[2 cABc dB||

%%%

